X: 1
T: A Jig For Kim
Z: KheltonHeadley
S: https://thesession.org/tunes/15947#setting30014
R: jig
M: 6/8
L: 1/8
K: Dmaj
dcd edc | def gfe | dff cee | BAB cBA | dcd edc |
def ecA | cee BAB | cBA A2A | dcd edc |
def gfe | dff cee | BAB cBA | dcd edc |
def ecA | cee BAB | cBA A2e | fef afe |
fef ecA | fef afe | dff ecA | fef afe |
fef ecA | dff ecA | BcB Ad2 |
